X: 7
T: The Morpeth Rant
R: reel
M: 4/4
L: 1/8
K: Dmaj
|: A2 | d2 AG FDFA | BGBd cAce | f2 f2 gfed | c2 e2 e2 A2 |
d2 AG FDFA | BGBd cAce | f2 f2 gfed | A2 d2 d2 :|
|: e2 | dfaf dfaf | gfef g2 ef | gfed ceag | fefg f2 e2 |
dfaf dfaf | gfef g2 ef | gfed ceag | f2 d2 d2 :|


Tune 1310	Setting 14642

